source/img/icons/logo.svg

<svg width="100" height="15" viewBox="0 0 100 15" fill="none" xmlns="http://www.w3.org/2000/svg">
<path d="M0.26 1.4V14H2.276V8.906H7.334V6.44H2.276V3.848H9.872V1.4H0.26ZM12.733 14.36C15.127 14.36 16.243 12.65 16.243 9.5V1.4H14.263V8.96C14.263 11.21 13.723 11.876 12.733 11.876C11.833 11.876 11.473 11.3 11.347 10.58L9.36702 10.94C9.63702 13.046 10.663 14.36 12.733 14.36ZM18.3918 7.7C18.3918 11.372 22.3878 14.36 27.3198 14.36C32.2518 14.36 36.2478 11.372 36.2478 7.7C36.2478 4.028 32.2518 1.04 27.3198 1.04C22.3878 1.04 18.3918 4.028 18.3918 7.7ZM20.6058 7.7C20.6058 5.378 23.6118 3.524 27.3198 3.524C30.9918 3.524 33.9798 5.378 33.9798 7.7C33.9798 10.004 30.9918 11.858 27.3198 11.858C23.6118 11.858 20.6058 10.004 20.6058 7.7ZM40.403 14V8.906H40.799L49.079 14.702V12.38L44.039 8.906H44.201C47.999 8.906 49.277 7.304 49.277 5.162C49.277 3.092 47.999 1.4 44.201 1.4H38.387V14H40.403ZM43.535 3.722C45.785 3.722 47.045 4.136 47.045 5.432C47.045 6.764 45.785 7.034 43.535 7.034H40.403V3.722H43.535ZM51.6936 1.382V14H57.8676C62.7456 14 66.7236 11.534 66.7236 7.7C66.7236 3.848 62.7456 1.382 57.8676 1.382H51.6936ZM53.7096 11.624V3.722H57.5436C61.5396 3.722 64.4916 5.018 64.4916 7.7C64.4916 10.238 61.5396 11.624 57.5436 11.624H53.7096ZM73.1832 14.018H74.9832V5H73.1832V14.018ZM72.9132 1.976C72.9132 2.57 73.3992 3.092 74.0832 3.092C74.7492 3.092 75.2352 2.57 75.2352 1.976C75.2352 1.382 74.7672 0.805999 74.0832 0.805999C73.3812 0.805999 72.9132 1.382 72.9132 1.976ZM76.7867 14H78.5687V9.104C78.7487 8.006 79.5947 6.962 81.0887 6.962C82.1147 6.962 83.2667 7.448 83.2667 9.554V14H85.0487V9.014C85.0487 6.152 83.2307 4.73 81.3587 4.73C79.9187 4.73 79.0727 5.558 78.5687 6.854V5H76.7867V14ZM90.9898 14.27C93.5098 14.27 95.3818 12.506 95.7238 10.328H94.0498C93.7258 11.3 92.6998 12.02 90.9898 12.02C88.8478 12.02 87.7678 10.922 87.7678 9.59C87.7678 8.24 88.8478 6.962 90.9898 6.962C92.7538 6.962 93.7978 7.844 94.0858 8.924H95.7418C95.4358 6.71 93.6178 4.73 90.9898 4.73C88.0918 4.73 86.1298 7.124 86.1298 9.59C86.1298 12.074 88.1278 14.27 90.9898 14.27ZM97.0693 12.938C97.0693 13.658 97.5553 14.144 98.2753 14.144C98.9953 14.144 99.4813 13.658 99.4813 12.938C99.4813 12.2 98.9953 11.714 98.2753 11.714C97.5553 11.714 97.0693 12.2 97.0693 12.938Z" fill="currentColor"/>
</svg>

<svg width="100" height="15" fill="none" xmlns="http://www.w3.org/2000/svg"><path d="M.26 1.4V14h2.016V8.906h5.058V6.44H2.276V3.848h7.596V1.4H.26zm12.473 12.96c2.394 0 3.51-1.71 3.51-4.86V1.4h-1.98v7.56c0 2.25-.54 2.916-1.53 2.916-.9 0-1.26-.576-1.386-1.296l-1.98.36c.27 2.106 1.296 3.42 3.366 3.42zm5.659-6.66c0 3.672 3.996 6.66 8.928 6.66s8.928-2.988 8.928-6.66-3.996-6.66-8.928-6.66-8.928 2.988-8.928 6.66zm2.214 0c0-2.322 3.006-4.176 6.714-4.176 3.672 0 6.66 1.854 6.66 4.176 0 2.304-2.988 4.158-6.66 4.158-3.708 0-6.714-1.854-6.714-4.158zM40.403 14V8.906h.396l8.28 5.796V12.38l-5.04-3.474h.162c3.798 0 5.076-1.602 5.076-3.744 0-2.07-1.278-3.762-5.076-3.762h-5.814V14h2.016zm3.132-10.278c2.25 0 3.51.414 3.51 1.71 0 1.332-1.26 1.602-3.51 1.602h-3.132V3.722h3.132zm8.159-2.34V14h6.174c4.878 0 8.856-2.466 8.856-6.3 0-3.852-3.978-6.318-8.856-6.318h-6.174zm2.016 10.242V3.722h3.834c3.996 0 6.948 1.296 6.948 3.978 0 2.538-2.952 3.924-6.948 3.924H53.71zm19.473 2.394h1.8V5h-1.8v9.018zm-.27-12.042c0 .594.486 1.116 1.17 1.116a1.13 1.13 0 001.152-1.116c0-.594-.468-1.17-1.152-1.17-.702 0-1.17.576-1.17 1.17zM76.787 14h1.782V9.104c.18-1.098 1.026-2.142 2.52-2.142 1.026 0 2.178.486 2.178 2.592V14h1.782V9.014c0-2.862-1.818-4.284-3.69-4.284-1.44 0-2.286.828-2.79 2.124V5h-1.782v9zm14.203.27c2.52 0 4.392-1.764 4.734-3.942H94.05c-.324.972-1.35 1.692-3.06 1.692-2.142 0-3.222-1.098-3.222-2.43 0-1.35 1.08-2.628 3.222-2.628 1.764 0 2.808.882 3.096 1.962h1.656C95.436 6.71 93.618 4.73 90.99 4.73c-2.898 0-4.86 2.394-4.86 4.86 0 2.484 1.998 4.68 4.86 4.68zm6.08-1.332c0 .72.485 1.206 1.205 1.206.72 0 1.206-.486 1.206-1.206 0-.738-.486-1.224-1.206-1.224s-1.206.486-1.206 1.224z" fill="currentColor"/></svg>
